X:5181
T:Polkett
O:england
C:August Johansson, Hlsingland
M:2/4
L:1/16
K:C
EGCE FADF|EGCE G2G2|1 FAFD B2B2|\
~A2G2 c2c2:|2 ~F2D2 B2B2|~A2G2 c4\
|:e2ce d2AB|
c2c2 CEGc|B2DE F2F2|FAGF E2C2|\
e2ce d2AB|c2c2 CEGc|B2DE F2B,2|D2C2 C4:|
